X: 21422
T: THE ROSE OF DENMARK
C: By R. Stephenson
R: hornpipe
B: K\"ohler's Violin Repository, v.2, 1885 p.142 #2
F: http://www.archive.org/details/klersviolinrepos02rugg
Z: 2012 John Chambers <jc:trillian.mit.edu>
M: C|
L: 1/8
K: Bb
uF2 |\
(3Bdf bfd B2(c>B) | (3ABc (3BAG F2(D>C) | (B,>D)F>D (E>G)c>B | (3ABc (3BAG F2(d>c) |
(3Bdf bfd B2(c>B) | (3ABc (3BAG F2(D>C) | (3B,DF (3EGB (3FAc (3ecA | c2B2B2 :|
|: uf2 |\
(b>f)d>B (F>B)d>f | (g>e)c>G (E>G)c>f | (f>d)B>D (D>F)B>d | (3cdc (3BAG F2f2 |
(b>f)d>B (F>B)d>b | (g>e)c>G (E>G)c>g | (f>d)B>F (D>F)B>d | (3cec (3AcA B2 :|

%%sep 2 1 500

